X: 527
T: The Highland Wedding
R: reel
B: "Preston's Twenty Four Country Dances for the Year 1804", Tho. Preston, ed. p.24
F: http://imslp.org/wiki/24_Country_Dances_for_the_Year_1804_(Preston_(publisher),_Thomas)
N: The 2nd strain has initial repeat but no final repeat.
M: C|
L: 1/8
K: Bb
d |\
B2dB fBdB | GFGB Tc>Bcd | B/B/B dB fBdB | egfe dBB ::
E |\
D/E/F B,F BFdB | GFGB Tc>Bcd | .B.f.d.f .e.g.d.f | Tc>Bcd B/B/B B2 |
(D/E/F) (B,F) BFdB | GFGB cBcd | f/f/f (Tgf) bfdB | egfe dBB |]
% - - - - - - - - - - - - - - - - - - - - - - - - -
%%begintext align
%% 1st Cu. lead down the middle up again, 2d Cu. do
%% the same, hands 4 half round & back again, swing
%% corners & turn your partner.
%%endtext

%%sep 1 1 500
